X:1
T:Mr. James Munro's
T:Mr. James Munro's
T:Alexander Walker
C:Alexander Walker
L:1/8
M:2/2
K:E
V:1 treble 
V:1
 c | B<EG>E B<EE>G | F>GA>B c2 c>e | B<EG>E B>EG>E | D>B,F>D E2 E :| b>e a/g/f/d/ e>cB>G | %6
 (3AcA (3GBG c<FF>a | b>e a/g/f/d/ e>cB>G | A>cB>a g<ee>b | b>e a/g/f/d/ e>cB>G | A>cG>B c<FF>A | %11
 G<BA<c B<ag<f | e/d/c/B/ A/a/g/f/ g<ee || %13

